X:490
T: MEIN SCHATZ IST VIERZIG MEILEN VON HIER
N: E0447B
O: Europa, Mitteleuropa, Deutschland, Ober - Lahnkreis, Altenkirchen
R: Liebes - Lied
M: 4/4
L: 1/8
K: G
D2 | G2B2B2AG | A2D2D2
D2 | c2c2cedc | B4z2
Ad | A2A2BAG2 | FED2D2
Bd | cedcB2A2 | G4z2

@@@ Tune index: 4140
